images/save-button.svg

<svg width="358" height="51" viewBox="0 0 358 51" fill="none" xmlns="http://www.w3.org/2000/svg">
<rect width="358" height="50.152" rx="2" fill="black"/>
<path d="M144.475 22.6628C143.989 19.9782 141.841 18.393 139.208 18.393C135.858 18.393 133.429 20.9753 133.429 25.1174C133.429 29.2594 135.858 31.8418 139.208 31.8418C141.841 31.8418 143.989 30.2566 144.475 27.5719H142.89C142.506 29.3873 140.946 30.3589 139.208 30.3589C136.83 30.3589 134.963 28.518 134.963 25.1174C134.963 21.7168 136.83 19.8759 139.208 19.8759C140.946 19.8759 142.506 20.8475 142.89 22.6628H144.475ZM150.82 31.8674C153.48 31.8674 155.269 29.8475 155.269 26.8049C155.269 23.7367 153.48 21.7168 150.82 21.7168C148.161 21.7168 146.372 23.7367 146.372 26.8049C146.372 29.8475 148.161 31.8674 150.82 31.8674ZM150.82 30.5123C148.801 30.5123 147.88 28.7736 147.88 26.8049C147.88 24.8361 148.801 23.0719 150.82 23.0719C152.84 23.0719 153.761 24.8361 153.761 26.8049C153.761 28.7736 152.84 30.5123 150.82 30.5123ZM158.293 21.8447H156.554L159.673 26.7538L156.554 31.6628H158.293L160.645 27.8532L162.997 31.6628H164.736L161.566 26.7538L164.736 21.8447H162.997L160.645 25.8589L158.293 21.8447ZM166.888 35.3447H168.397V30.1543H168.525C168.857 30.6913 169.496 31.8674 171.388 31.8674C173.843 31.8674 175.556 29.8986 175.556 26.7793C175.556 23.6856 173.843 21.7168 171.363 21.7168C169.445 21.7168 168.857 22.893 168.525 23.4043H168.346V21.8447H166.888V35.3447ZM168.371 26.7538C168.371 24.5549 169.343 23.0719 171.184 23.0719C173.102 23.0719 174.048 24.6827 174.048 26.7538C174.048 28.8503 173.076 30.5123 171.184 30.5123C169.369 30.5123 168.371 28.9782 168.371 26.7538ZM180.746 31.893C182.46 31.893 183.354 30.9725 183.661 30.3333H183.738V31.6628H185.246V25.1941C185.246 22.0748 182.869 21.7168 181.616 21.7168C180.133 21.7168 178.445 22.2282 177.678 24.018L179.11 24.5293C179.442 23.8134 180.229 23.0464 181.667 23.0464C183.054 23.0464 183.738 23.7814 183.738 25.0407V25.0918C183.738 25.8205 182.996 25.7566 181.207 25.9867C179.385 26.2232 177.397 26.6259 177.397 28.8759C177.397 30.7935 178.88 31.893 180.746 31.893ZM180.977 30.5378C179.775 30.5378 178.906 30.0009 178.906 28.9526C178.906 27.802 179.954 27.4441 181.13 27.2907C181.769 27.214 183.482 27.035 183.738 26.7282V28.1089C183.738 29.3361 182.766 30.5378 180.977 30.5378ZM189.508 21.8447H188V31.6628H189.508V27.4697H194.213V31.6628H195.721V21.8447H194.213V26.0634H189.508V21.8447ZM199.985 29.4384V21.8447H198.476V31.6628H200.241L204.945 24.0691V31.6628H206.454V21.8447H204.715L199.985 29.4384ZM207.881 23.2509H211.128V31.6628H212.636V23.2509H215.858V21.8447H207.881V23.2509ZM219.567 25.3986V21.8447H218.058V31.6628H222.175C224.476 31.6628 225.729 30.2566 225.729 28.4924C225.729 26.7026 224.476 25.3986 222.175 25.3986H219.567ZM219.567 26.8049H222.175C223.37 26.8049 224.22 27.5336 224.22 28.5691C224.22 29.5599 223.37 30.2566 222.175 30.2566H219.567V26.8049Z" fill="white"/>
</svg>

<svg width="358" height="51" fill="none" xmlns="http://www.w3.org/2000/svg"><rect width="358" height="50.152" rx="2" fill="#000"/><path d="M144.475 22.663c-.486-2.685-2.634-4.27-5.267-4.27-3.35 0-5.779 2.582-5.779 6.724s2.429 6.725 5.779 6.725c2.633 0 4.781-1.585 5.267-4.27h-1.585c-.384 1.815-1.944 2.787-3.682 2.787-2.378 0-4.245-1.841-4.245-5.242 0-3.4 1.867-5.241 4.245-5.241 1.738 0 3.298.971 3.682 2.787h1.585Zm6.345 9.204c2.66 0 4.449-2.02 4.449-5.062 0-3.068-1.789-5.088-4.449-5.088-2.659 0-4.448 2.02-4.448 5.088 0 3.043 1.789 5.062 4.448 5.062Zm0-1.355c-2.019 0-2.94-1.738-2.94-3.707 0-1.969.921-3.733 2.94-3.733 2.02 0 2.941 1.764 2.941 3.733s-.921 3.707-2.941 3.707Zm7.473-8.667h-1.739l3.119 4.909-3.119 4.909h1.739l2.352-3.81 2.352 3.81h1.739l-3.17-4.91 3.17-4.908h-1.739l-2.352 4.014-2.352-4.014Zm8.595 13.5h1.509v-5.19h.128c.332.536.971 1.712 2.863 1.712 2.455 0 4.168-1.968 4.168-5.088 0-3.093-1.713-5.062-4.193-5.062-1.918 0-2.506 1.176-2.838 1.687h-.179v-1.56h-1.458v13.5Zm1.483-8.591c0-2.2.972-3.682 2.813-3.682 1.918 0 2.864 1.61 2.864 3.682 0 2.096-.972 3.758-2.864 3.758-1.815 0-2.813-1.534-2.813-3.758Zm12.375 5.139c1.714 0 2.608-.92 2.915-1.56h.077v1.33h1.508v-6.469c0-3.12-2.377-3.477-3.63-3.477-1.483 0-3.171.511-3.938 2.301l1.432.511c.332-.716 1.119-1.483 2.557-1.483 1.387 0 2.071.735 2.071 1.995v.05c0 .73-.742.666-2.531.896-1.822.236-3.81.639-3.81 2.889 0 1.918 1.483 3.017 3.349 3.017Zm.231-1.355c-1.202 0-2.071-.537-2.071-1.585 0-1.151 1.048-1.509 2.224-1.662.639-.077 2.352-.256 2.608-.563v1.38c0 1.228-.972 2.43-2.761 2.43Zm8.531-8.693H188v9.818h1.508V27.47h4.705v4.193h1.508v-9.818h-1.508v4.218h-4.705v-4.218Zm10.477 7.593v-7.593h-1.509v9.818h1.765l4.704-7.594v7.594h1.509v-9.818h-1.739l-4.73 7.593Zm7.896-6.187h3.247v8.412h1.508V23.25h3.222v-1.406h-7.977v1.406Zm11.686 2.148v-3.554h-1.509v9.818h4.117c2.301 0 3.554-1.406 3.554-3.17 0-1.79-1.253-3.094-3.554-3.094h-2.608Zm0 1.406h2.608c1.195 0 2.045.729 2.045 1.764 0 .99-.85 1.688-2.045 1.688h-2.608v-3.452Z" fill="#fff"/></svg>
